X:19
T:Hpps simple chords 15
M:3/4
L:1/8
K:Am
E2 [A2A,2C2E2] A>B | c>B c>d [eA,CE]>f | e>c d2 c>d | [eA,CE]>d c>B A>B | c>A [BE,^G,B,D]>G E2 |
E2 (3E^F^G [AA,CE]>G | A>B c>B c>d | [eA,CE]>f e>c d2 | c>d [eA,CE]>a ^g>a |
e>d c>B [c2A,2C2E2] | A2 A2 E2 | [A2A,2C2E2] A>B c>B | c>d [eA,CE]>f e>c |
d2 c>d [eA,CE]>d | c>B A>B c>A | [BE,^G,B,D]>G E2 E2 | (3E^F^G [AA,CE]>G A>B |
c>B c>d [eA,CE]>f | e>c d2 c>d | [eA,CE]>a ^g>a e>d | c>B [c2A,2C2E2] A2 |
A2 e>f [g2C,2E,2G,2] | g>a g>f e>f | [gC,E,G,]>f e>c d2 | c>d [eA,CE]>d c>B |
A>B c>A [BE,^G,B,D]>G | E2 E2 (3E^F^G | [AA,CE]>^G A>B c>B | c>d [eA,CE]>f e>c |
d2 c>d [eA,CE]>a | ^g>a e>d c>B | [c2A,2C2E2] A2 A2 | e>f [g2C,2E,2G,2] g>a |
g>f e>f [gC,E,G,]>f | e>c d2 c>d | [eA,CE]>d c>B A>B | c>A [BE,^G,B,D]>G E2 |
E2 (3E^F^G [AA,CE]>G | A>B c>B c>d | [eA,CE]>f e>c d2 | c>d [eA,CE]>a ^g>a |
e>d c>B [c2A,2C2E2] | A2 A2 |


